X: 793
T: Ako Umram Il' Zaginam
R: jig
M: 6/8
K: Dminor
M:7/16
L:1/16
effe dec|d2dA cec|d2dA cec|d2d2 e2e|
effe dec|d2dA cec|d2dA cec|d2d2 e2e|
|:{/f}g2g gfga|f2f fefg|a2g f2e2|d2d e2f2|
{/f}g2g gfga|f2f fefg|a2g f2e2|d2d d4:|
|:FED A2A2|FED A2A2|d2d c2B2|A2G GFFE|FED A2A2|FED A2A2|
E2F AGFE|F2E D2D2|E2F AGFE|F2E D4:|
|:d2d c2B2|A7|d2d c2B2|A7|B2B A2G2|F2F FEFG|A2G F2E2|D2D D4:|

